Papirus/24x24/panel/mumble-indicator.svg

<?xml version="1.0" encoding="UTF-8" standalone="no"?>
<svg xmlns:dc="http://purl.org/dc/elements/1.1/" xmlns:cc="http://creativecommons.org/ns#" xmlns:rdf="http://www.w3.org/1999/02/22-rdf-syntax-ns#" xmlns:svg="http://www.w3.org/2000/svg" xmlns="http://www.w3.org/2000/svg" version="1.0" width="24" height="24" id="svg2817">
    <metadata id="metadata57">
        <rdf:RDF>
            <cc:Work rdf:about="">
                <dc:format>
                    image/svg+xml
                </dc:format>
                <dc:type rdf:resource="http://purl.org/dc/dcmitype/StillImage"/>
                <dc:title/>
            </cc:Work>
        </rdf:RDF>
    </metadata>
    <path id="path4153" d="M 12,5 C 8.134007,5 5,8.134 5,12 l 0,1.361328 C 4.3571908,14.090202 4.0017217,15.028168 4,16 c 0,2.209139 1.790861,4 4,4 l 1,0 0,-8 -1,0 C 7.6623975,12.0019 7.3263928,12.04652 7,12.132813 L 7,12 c 0,-2.77 2.23,-5 5,-5 2.770003,0 5,2.23 5,5 l 0,0.130859 C 16.673523,12.045224 16.337519,12.001255 16,12 l -1,0 0,6.010742 c -0.391588,-0.02345 -0.806783,0.07409 -1,-0.02148 L 14,17 12,17 c -0.554,0 -1,0.534419 -1,1.199219 l 0,0.601562 C 11,19.465581 11.446,20 12,20 l 3,0 0.753906,0 L 16,20 c 2.209139,0 4,-1.790861 4,-4 -0.0017,-0.971832 -0.357191,-1.909798 -1,-2.638672 L 19,12 C 19,8.134 15.86599,5 12,5 Z" style="opacity:1;fill:#ffffff;fill-opacity:1"/>
</svg>

<?xml version="1.0" encoding="UTF-8" standalone="no"?>
<svg id="svg2817" xmlns:rdf="http://www.w3.org/1999/02/22-rdf-syntax-ns#" xmlns="http://www.w3.org/2000/svg" height="24" width="24" version="1.0" xmlns:cc="http://creativecommons.org/ns#" xmlns:dc="http://purl.org/dc/elements/1.1/">
 <metadata id="metadata57">
  <rdf:RDF>
   <cc:Work rdf:about="">
    <dc:format>image/svg+xml</dc:format>
    <dc:type rdf:resource="http://purl.org/dc/dcmitype/StillImage"/>
    <dc:title/>
   </cc:Work>
  </rdf:RDF>
 </metadata>
 <path id="path4153" d="m12 5c-3.866 0-7 3.134-7 7v1.3613c-0.6428 0.729-0.9983 1.667-1 2.639 0 2.2091 1.7909 4 4 4h1v-8h-1c-0.3376 0.002-0.6736 0.047-1 0.133v-0.133c0-2.77 2.23-5 5-5s5 2.23 5 5v0.13086c-0.326-0.086-0.662-0.13-1-0.131h-1v6.0107c-0.39159-0.02345-0.80678 0.07409-1-0.02148v-0.99h-2c-0.554 0-1 0.53442-1 1.1992v0.60156c0 0.665 0.446 1.199 1 1.199h3 0.75391 0.246c2.2091 0 4-1.7909 4-4-0.0017-0.97183-0.35719-1.9098-1-2.6387v-1.361c0-3.866-3.134-7-7-7z" fill="#fff"/>
</svg>
